X:2420
T:The Arbory Cradle Song 
T:(Arrane y clean-lhiannoo) 
C:Mr William Cubbon 
C:Traditional
O:Isle of Man
Z:Kiaull Vannin 420 
L:1/4
M:2/4 
Q:30 
K:G 
D (E/F/)|G (A/B/)|c (d/e/)|(e/A/) B/ B/|D D/ E/|E/ D/ D| 
D E/ F/|E D|B B/ c/|B/ G/ E/ D/|D E/ F/|E D|D/ D/ E/ E/|F F|| 

